SVG_Azure_All/Azure Quantum.svg

<?xml version="1.0" encoding="UTF-8" standalone="no"?>
<!-- Generated by Microsoft Visio, SVG Export Azure Quantum.svg Page-1 -->

<svg
   xmlns:dc="http://purl.org/dc/elements/1.1/"
   xmlns:cc="http://creativecommons.org/ns#"
   xmlns:rdf="http://www.w3.org/1999/02/22-rdf-syntax-ns#"
   xmlns:svg="http://www.w3.org/2000/svg"
   xmlns="http://www.w3.org/2000/svg"
   xmlns:sodipodi="http://sodipodi.sourceforge.net/DTD/sodipodi-0.dtd"
   xmlns:inkscape="http://www.inkscape.org/namespaces/inkscape"
   width="0.63096499in"
   height="0.78739482in"
   viewBox="0 0 45.429722 56.69241"
   xml:space="preserve"
   class="st6"
   version="1.1"
   id="svg55"
   sodipodi:docname="Azure Quantum.svg"
   style="font-size:12px;overflow:visible;color-interpolation-filters:sRGB;fill:none;fill-rule:evenodd;stroke-linecap:square;stroke-miterlimit:3"
   inkscape:version="0.92.5 (2060ec1f9f, 2020-04-08)"><metadata
   id="metadata59"><rdf:RDF><cc:Work
       rdf:about=""><dc:format>image/svg+xml</dc:format><dc:type
         rdf:resource="http://purl.org/dc/dcmitype/StillImage" /></cc:Work></rdf:RDF></metadata><sodipodi:namedview
   pagecolor="#ffffff"
   bordercolor="#666666"
   borderopacity="1"
   objecttolerance="10"
   gridtolerance="10"
   guidetolerance="10"
   inkscape:pageopacity="0"
   inkscape:pageshadow="2"
   inkscape:window-width="640"
   inkscape:window-height="480"
   id="namedview57"
   showgrid="false"
   inkscape:zoom="1.4193037"
   inkscape:cx="30.288555"
   inkscape:cy="37.78255"
   inkscape:window-x="0"
   inkscape:window-y="0"
   inkscape:window-maximized="0"
   inkscape:current-layer="svg55" />
	<style
   type="text/css"
   id="style2">
	<![CDATA[
		.st1 {fill:url(#grad0-6);stroke:none;stroke-linecap:butt;stroke-width:34}
		.st2 {fill:url(#grad0-10);stroke:none;stroke-linecap:butt;stroke-width:34}
		.st3 {fill:#773adc;stroke:none;stroke-linecap:butt;stroke-width:34}
		.st4 {fill:url(#grad0-16);stroke:none;stroke-linecap:butt;stroke-width:34}
		.st5 {fill:#552f99;stroke:none;stroke-linecap:butt;stroke-width:34}
		.st6 {fill:none;fill-rule:evenodd;font-size:12px;overflow:visible;stroke-linecap:square;stroke-miterlimit:3}
	]]>
	</style>

	<defs
   id="Patterns_And_Gradients">
		<linearGradient
   id="grad0-6"
   x1="0"
   y1="59.516159"
   x2="30.855936"
   y2="59.516159"
   gradientTransform="scale(0.72465797,1.3799614)"
   gradientUnits="userSpaceOnUse">
			<stop
   offset="0"
   stop-color="#773adc"
   stop-opacity="1"
   id="stop4" />
			<stop
   offset="1"
   stop-color="#a67af4"
   stop-opacity="1"
   id="stop6" />
		</linearGradient>
		<linearGradient
   id="grad0-10"
   x1="0"
   y1="83.46753"
   x2="43.81586"
   y2="83.46753"
   gradientTransform="scale(1.020635,0.9797822)"
   gradientUnits="userSpaceOnUse">
			<stop
   offset="0"
   stop-color="#552f99"
   stop-opacity="1"
   id="stop9" />
			<stop
   offset="1"
   stop-color="#773adc"
   stop-opacity="1"
   id="stop11" />
		</linearGradient>
		<linearGradient
   id="grad0-16"
   x1="0"
   y1="55.689516"
   x2="38.736582"
   y2="55.689516"
   gradientTransform="scale(0.75716541,1.3207154)"
   gradientUnits="userSpaceOnUse">
			<stop
   offset="0"
   stop-color="#a67af4"
   stop-opacity="1"
   id="stop14" />
			<stop
   offset="1"
   stop-color="#773adc"
   stop-opacity="1"
   id="stop16" />
		</linearGradient>
	</defs>
	<g
   id="g53"
   transform="translate(-33.999963,-33.999184)">
		<title
   id="title20">Page-1</title>
		<g
   id="group7641-1"
   transform="translate(34.0514,-34.0157)">
			<title
   id="title22">Azure Quantum</title>
			<g
   id="group7642-2">
				<title
   id="title24">Sheet.7642</title>
				<g
   id="shape7643-3"
   transform="translate(0.273598,-0.441122)">
					<title
   id="title26">Sheet.7643</title>
					<path
   d="m 7.63,82.13 7.72,4.01 7.01,38.57 L 0,111.78 Z"
   class="st1"
   id="path28"
   inkscape:connector-curvature="0"
   style="fill:url(#grad0-6);stroke:none;stroke-width:34;stroke-linecap:butt" />
				</g>
				<g
   id="shape7644-7"
   transform="translate(0.273598,-13.366)">
					<title
   id="title31">Sheet.7644</title>
					<path
   d="M 37.71,85.78 30,81.78 8.04,94.81 A 1.15729,1.15952 -180 0 0 7.51,95.52 L 0,124.71 22.36,111.43 44.72,124.35 Z"
   class="st2"
   id="path33"
   inkscape:connector-curvature="0"
   style="fill:url(#grad0-10);stroke:none;stroke-width:34;stroke-linecap:butt" />
				</g>
				<g
   id="shape7645-11"
   transform="translate(15.6234,-1.23531)">
					<title
   id="title36">Sheet.7645</title>
					<path
   d="M 0,86.94 22.36,73.65 29.37,112.21 8.45,124.65 A 1.16043,1.16267 0 0 1 6.71,123.86 Z"
   class="st3"
   id="path38"
   inkscape:connector-curvature="0"
   style="fill:#773adc;stroke:none;stroke-width:34;stroke-linecap:butt" />
				</g>
				<g
   id="shape7646-13"
   transform="translate(15.3341,-1.4305)">
					<title
   id="title41">Sheet.7646</title>
					<path
   d="m 22.59,108.43 5.73,-3.33 -0.05,-0.28 -5.72,3.33 v -8.16 l 5.42,3.15 -0.06,-0.33 -5.35,-3.12 V 99.5 l -0.17,0.1 4.48,-2.6 -0.05,-0.27 -4.34,2.52 v -8.23 l 3.69,2.14 -0.06,-0.31 -3.5,-2.03 2.83,-1.65 -0.05,-0.26 -2.91,1.69 v -8.3 l 1.92,1.13 -0.06,-0.33 -1.89,-1.11 v -8.22 a 1.4246,1.42734 -180 0 0 -0.24,-0.22 l -0.79,0.47 0.78,-0.45 v 8.27 l -7.01,-4.09 -0.47,0.27 v 8.11 L 7.81,82.12 5.44,83.53 7.36,82.41 V 90.6 L 0.38,86.54 0,86.77 0.25,88.12 v -1.36 l 7.05,4.1 v 0.02 l -5.88,3.44 0.06,0.32 6,-3.5 v 8.22 l -5.72,-3.31 0.08,0.42 5.41,3.15 -4.34,2.52 0.05,0.29 4.43,-2.57 v 8.2 l -3.77,-2.21 0.06,0.34 3.59,2.08 -2.88,1.67 0.06,0.31 2.9,-1.68 v 8.32 l -1.86,-1.09 0.07,0.34 1.57,0.92 -1.26,0.72 0.05,0.28 1.34,-0.77 v 7.21 a 1.1793,1.18158 -180 0 0 0.26,0.21 v -7.41 l 6.96,4.03 0.25,-0.15 -7.08,-4.09 7.09,-4.12 v 8.22 l 0.25,-0.15 v -8.07 l 6.88,3.99 0.25,-0.15 -6.99,-4.06 7.07,-4.12 v 8.11 l 0.25,-0.15 v -7.94 l 6.72,3.9 a 1.20446,1.20678 -180 0 0 0.16,-0.21 z m -7.62,-30.52 7.04,4.12 -7.04,4.1 z m -0.23,8.91 v 8.15 L 7.82,90.94 7.88,90.9 7.78,90.86 Z m 0,8.46 -7.01,4.08 V 91.2 Z M 7.62,82.3 14.7,86.43 v 0.1 l -7.08,4.13 z m 7.11,21.67 -7.09,4.09 v -8.2 z M 7.59,116.8 v -8.16 l 7.01,4.1 z m 7.24,-4.25 -7.17,-4.18 7.17,-4.15 z m 0.04,-8.8 -7.08,-4.1 7.08,-4.11 z m 0.1,-17.3 7.23,-4.21 v 8.54 l -7.23,-4.23 z m 0.17,8.9 0.12,-0.07 -0.06,-0.01 7,-4.1 v 8.28 z m 6.99,4.35 -7.01,4.07 v -8.14 z m -7.16,-12.86 7.07,4.12 -7.07,4.12 z m 0.09,25.63 v -8.12 l 6.98,4.07 z m 7.23,-4.21 -7.15,-4.17 7.15,-4.15 z"
   class="st4"
   id="path43"
   inkscape:connector-curvature="0"
   style="fill:url(#grad0-16);stroke:none;stroke-width:34;stroke-linecap:butt" />
				</g>
				<g
   id="shape7647-17">
					<title
   id="title46">Sheet.7647</title>
					<path
   d="m 38.53,72.52 c 0,-0.08 -0.1,-0.11 -0.14,-0.18 A 0.70758,0.708946 -180 0 0 38.07552,71.842162 L 31.07,68.2 a 1.67303,1.67626 -180 0 0 -1.62,0.05 L 7.66,81.2 A 0.512603,0.513592 -180 0 0 7.408416,81.653725 L 7.41,81.67 c 0,0.03 -0.05,0.04 -0.06,0.07 L 0,110.31 a 1.68561,1.68887 -180 0 0 0.78,1.87 l 21.6,12.48 h 0.04 a 0.490589,0.491536 -180 0 0 0.210702,0.0473 0.518892,0.519894 -180 0 0 0.261019,-0.0725 L 44.56,111.8 a 1.67618,1.67941 -180 0 0 0.79,-1.75 z m -8.54,-3.39 a 0.62896,0.630174 0 0 1 0.62896,-0.0189 L 36.93,72.41 21.87,81.35 15.92,84.88 a 0.654119,0.655381 0 0 1 -0.62896,0.01575 L 8.96,81.61 Z M 1.3,111.29 A 0.657264,0.658532 0 0 1 0.98552,110.559 L 8.21,82.39 l 6.61,3.42 0.07,0.03 a 0.654119,0.655381 0 0 1 0.339639,0.463178 L 15.27,86.54 l 4.54,24.96 2.13,11.72 z M 44.04,110.91 23.01,123.4 16.27,86.36 a 0.660408,0.661683 0 0 1 0.31448,-0.677437 L 37.62,73.19 l 6.74,37.05 a 0.654119,0.655381 0 0 1 -0.31448,0.67744 z"
   class="st5"
   id="path48"
   inkscape:connector-curvature="0"
   style="fill:#552f99;stroke:none;stroke-width:34;stroke-linecap:butt" />
				</g>
			</g>
		</g>
	</g>
</svg>

<?xml version="1.0" encoding="UTF-8" standalone="no"?>
<!DOCTYPE svg PUBLIC "-//W3C//DTD SVG 1.1//EN" "http://www.w3.org/Graphics/SVG/1.1/DTD/svg11.dtd">
<!-- Generated by Microsoft Visio, SVG Export Azure Quantum.svg Page-1 -->
<svg xmlns="http://www.w3.org/2000/svg" xmlns:xlink="http://www.w3.org/1999/xlink" xmlns:ev="http://www.w3.org/2001/xml-events"
		width="1.57545in" height="1.73207in" viewBox="0 0 113.433 124.709" xml:space="preserve" color-interpolation-filters="sRGB"
		class="st6">
	<style type="text/css">
	<![CDATA[
		.st1 {fill:url(#grad0-6);stroke:none;stroke-linecap:butt;stroke-width:34}
		.st2 {fill:url(#grad0-10);stroke:none;stroke-linecap:butt;stroke-width:34}
		.st3 {fill:#773adc;stroke:none;stroke-linecap:butt;stroke-width:34}
		.st4 {fill:url(#grad0-16);stroke:none;stroke-linecap:butt;stroke-width:34}
		.st5 {fill:#552f99;stroke:none;stroke-linecap:butt;stroke-width:34}
		.st6 {fill:none;fill-rule:evenodd;font-size:12px;overflow:visible;stroke-linecap:square;stroke-miterlimit:3}
	]]>
	</style>

	<defs id="Patterns_And_Gradients">
		<linearGradient id="grad0-6" x1="0" y1="0" x2="1" y2="0" gradientTransform="rotate(-90 0.5 0.5)">
			<stop offset="0" stop-color="#773adc" stop-opacity="1"/>
			<stop offset="1" stop-color="#a67af4" stop-opacity="1"/>
		</linearGradient>
		<linearGradient id="grad0-10" x1="0" y1="0" x2="1" y2="0" gradientTransform="rotate(-90 0.5 0.5)">
			<stop offset="0" stop-color="#552f99" stop-opacity="1"/>
			<stop offset="1" stop-color="#773adc" stop-opacity="1"/>
		</linearGradient>
		<linearGradient id="grad0-16" x1="0" y1="0" x2="1" y2="0" gradientTransform="rotate(0 0.5 0.5)">
			<stop offset="0" stop-color="#a67af4" stop-opacity="1"/>
			<stop offset="1" stop-color="#773adc" stop-opacity="1"/>
		</linearGradient>
	</defs>
	<g>
		<title>Page-1</title>
		<g id="group7468-1" transform="translate(34.0514,-34.0157)">
			<title>Azure Quantum</title>
			<g id="group7469-2">
				<title>Sheet.7469</title>
				<g id="shape7470-3" transform="translate(0.273598,-0.441122)">
					<title>Sheet.7470</title>
					<path d="M7.63 82.13 L15.35 86.14 L22.36 124.71 L0 111.78 L7.63 82.13 Z" class="st1"/>
				</g>
				<g id="shape7471-7" transform="translate(0.273598,-13.366)">
					<title>Sheet.7471</title>
					<path d="M37.71 85.78 L30 81.78 L8.04 94.81 A1.15729 1.15952 -180 0 0 7.51 95.52 L0 124.71 L22.36 111.43 L44.72
								 124.35 L37.71 85.78 Z" class="st2"/>
				</g>
				<g id="shape7472-11" transform="translate(15.6234,-1.23531)">
					<title>Sheet.7472</title>
					<path d="M0 86.94 L22.36 73.65 L29.37 112.21 L8.45 124.65 A1.16043 1.16267 0 0 1 6.71 123.86 L0 86.94 Z"
							class="st3"/>
				</g>
				<g id="shape7473-13" transform="translate(15.3341,-1.4305)">
					<title>Sheet.7473</title>
					<path d="M22.59 108.43 L28.32 105.1 L28.27 104.82 L22.55 108.15 L22.55 99.99 L27.97 103.14 L27.91 102.81 L22.56
								 99.69 L22.56 99.5 L22.39 99.6 L26.87 97 L26.82 96.73 L22.48 99.25 L22.48 91.02 L26.17 93.16 L26.11
								 92.85 L22.61 90.82 L25.44 89.17 L25.39 88.91 L22.48 90.6 L22.48 82.3 L24.4 83.43 L24.34 83.1 L22.45
								 81.99 L22.45 73.77 A1.4246 1.42734 -180 0 0 22.21 73.55 L21.42 74.02 L22.2 73.57 L22.2 81.84 L15.19
								 77.75 L14.72 78.02 L14.72 86.13 L7.81 82.12 L5.44 83.53 L7.36 82.41 L7.36 90.6 L0.38 86.54 L0 86.77
								 L0.25 88.12 L0.25 86.76 L7.3 90.86 L7.3 90.88 L1.42 94.32 L1.48 94.64 L7.48 91.14 L7.48 99.36 L1.76
								 96.05 L1.84 96.47 L7.25 99.62 L2.91 102.14 L2.96 102.43 L7.39 99.86 L7.39 108.06 L3.62 105.85 L3.68
								 106.19 L7.27 108.27 L4.39 109.94 L4.45 110.25 L7.35 108.57 L7.35 116.89 L5.49 115.8 L5.56 116.14
								 L7.13 117.06 L5.87 117.78 L5.92 118.06 L7.26 117.29 L7.26 124.5 A1.1793 1.18158 -180 0 0 7.52 124.71
								 L7.52 117.3 L14.48 121.33 L14.73 121.18 L7.65 117.09 L14.74 112.97 L14.74 121.19 L14.99 121.04 L14.99
								 112.97 L21.87 116.96 L22.12 116.81 L15.13 112.75 L22.2 108.63 L22.2 116.74 L22.45 116.59 L22.45
								 108.65 L29.17 112.55 A1.20446 1.20678 -180 0 0 29.33 112.34 L22.59 108.43 ZM14.97 77.91 L22.01 82.03
								 L14.97 86.13 L14.97 77.91 ZM14.74 86.82 L14.74 94.97 L7.82 90.94 L7.88 90.9 L7.78 90.86 L14.74 86.82
								 ZM14.74 95.28 L7.73 99.36 L7.73 91.2 L14.74 95.28 ZM7.62 82.3 L14.7 86.43 L14.7 86.53 L7.62 90.66
								 L7.62 82.3 ZM14.73 103.97 L7.64 108.06 L7.64 99.86 L14.73 103.97 ZM7.59 116.8 L7.59 108.64 L14.6
								 112.74 L7.59 116.8 ZM14.83 112.55 L7.66 108.37 L14.83 104.22 L14.83 112.55 ZM14.87 103.75 L7.79
								 99.65 L14.87 95.54 L14.87 103.75 ZM14.97 86.45 L22.2 82.24 L22.2 90.78 L14.97 86.55 L14.97 86.45
								 ZM15.14 95.35 L15.26 95.28 L15.2 95.27 L22.2 91.17 L22.2 99.45 L15.14 95.35 ZM22.13 99.7 L15.12
								 103.77 L15.12 95.63 L22.13 99.7 ZM14.97 86.84 L22.04 90.96 L14.97 95.08 L14.97 86.84 ZM15.06 112.47
								 L15.06 104.35 L22.04 108.42 L15.06 112.47 ZM22.29 108.26 L15.14 104.09 L22.29 99.94 L22.29 108.26
								 Z" class="st4"/>
				</g>
				<g id="shape7474-17">
					<title>Sheet.7474</title>
					<path d="M38.53 72.52 C38.53 72.44 38.43 72.41 38.39 72.34 a0.70758 0.708946 -180 0 0 -0.31448 -0.497838 L31.07
								 68.2 A1.67303 1.67626 -180 0 0 29.45 68.25 L7.66 81.2 a0.512603 0.513592 -180 0 0 -0.251584 0.453725
								 L7.41 81.67 C7.41 81.7 7.36 81.71 7.35 81.74 L0 110.31 A1.68561 1.68887 -180 0 0 0.78 112.18 L22.38
								 124.66 L22.42 124.66 a0.490589 0.491536 -180 0 0 0.210702 0.0472631 a0.518892 0.519894 -180 0 0
								 0.261019 -0.07247 L44.56 111.8 A1.67618 1.67941 -180 0 0 45.35 110.05 L38.53 72.52 ZM29.99 69.13
								 a0.62896 0.630174 0 0 1 0.62896 -0.0189052 L36.93 72.41 L21.87 81.35 L15.92 84.88 a0.654119 0.655381
								 0 0 1 -0.62896 0.0157544 L8.96 81.61 L29.99 69.13 ZM1.3 111.29 a0.657264 0.658532 0 0 1 -0.31448
								 -0.731002 L8.21 82.39 L14.82 85.81 L14.89 85.84 a0.654119 0.655381 0 0 1 0.339639 0.463178 L15.27
								 86.54 L19.81 111.5 L21.94 123.22 L1.3 111.29 ZM44.04 110.91 L23.01 123.4 L16.27 86.36 a0.660408
								 0.661683 0 0 1 0.31448 -0.677437 L37.62 73.19 L44.36 110.24 a0.654119 0.655381 0 0 1 -0.31448 0.677437
								 Z" class="st5"/>
				</g>
			</g>
		</g>
	</g>
</svg>
